public/icons/values/growth.svg

<svg xmlns="http://www.w3.org/2000/svg" viewBox="0 0 64 64" fill="#171717" xmlns:v="https://vecta.io/nano"><path d="M1.553 51.9l1.507.752.945 9.448A1 1 0 0 0 5 63h4a1 1 0 0 0 .995-.9l.945-9.453 1.507-.752A1 1 0 0 0 13 51v-6a3.992 3.992 0 0 0-3.45-3.944 4 4 0 1 0-5.1 0A3.992 3.992 0 0 0 1 45v6a1 1 0 0 0 .553.9zM7 36a2 2 0 1 1-2 2 2 2 0 0 1 2-2zm-4 9a2 2 0 0 1 2-2h4a2 2 0 0 1 2 2v5.382l-1.447.723a1 1 0 0 0-.548.8L8.1 61H5.905L5 51.9a1 1 0 0 0-.548-.8L3 50.382zm57-5a1 1 0 0 0-1-1h-6a1 1 0 0 0-1 1v21h-4V49a1 1 0 0 0-1-1h-6a1 1 0 0 0-1 1v12h-4v-5a1 1 0 0 0-1-1h-6a1 1 0 0 0-1 1v5h-3v2h38v-2h-3zM34 61h-4v-4h4zm12 0h-4V50h4zm12 0h-4V41h4zM44.49 41.559a1 1 0 0 0 .839.455h.061a1 1 0 0 0 .838-.56l2.554-5.242a1 1 0 0 0-.06-.984.981.981 0 0 0-.875-.454l-5.827.213a1 1 0 0 0-.8 1.544l1.091 1.677-21.794 14.179 1.09 1.675L43.4 39.882zm1.764-4.727L45.2 38.987l-1.347-2.068zm13.671-5.759L60 29a28 28 0 0 0-56 0l.075 2.073 2-.146L6 29a26 26 0 0 1 52 0l-.07 1.927zM31 28h-8v2h9a1 1 0 0 0 1-1V11h-2z"/></svg>

<?xml version="1.0" encoding="UTF-8" standalone="no"?>
<svg id="Layer_1" data-name="Layer 1" xmlns="http://www.w3.org/2000/svg" viewBox="0 0 64 64">
<path fill="#171717" stroke-width="2" d="M1.553,51.9l1.507.752L4.005,62.1A1,1,0,0,0,5,63H9a1,1,0,0,0,.995-.9l.945-9.453,1.507-.752A1,1,0,0,0,13,51V45a3.992,3.992,0,0,0-3.45-3.944,4,4,0,1,0-5.1,0A3.992,3.992,0,0,0,1,45v6A1,1,0,0,0,1.553,51.9ZM7,36a2,2,0,1,1-2,2A2,2,0,0,1,7,36ZM3,45a2,2,0,0,1,2-2H9a2,2,0,0,1,2,2v5.382l-1.447.723a1,1,0,0,0-.548.8L8.1,61H5.905L5,51.9a1,1,0,0,0-.548-.8L3,50.382Z"/>
<path fill="#171717" stroke-width="2" d="M60,40a1,1,0,0,0-1-1H53a1,1,0,0,0-1,1V61H48V49a1,1,0,0,0-1-1H41a1,1,0,0,0-1,1V61H36V56a1,1,0,0,0-1-1H29a1,1,0,0,0-1,1v5H25v2H63V61H60ZM34,61H30V57h4Zm12,0H42V50h4Zm12,0H54V41h4Z"/>
<path fill="#171717" stroke-width="2" d="M44.49,41.559a1,1,0,0,0,.839.455l.061,0a1,1,0,0,0,.838-.56l2.554-5.242a1,1,0,0,0-.06-.984.981.981,0,0,0-.875-.454l-5.827.213a1,1,0,0,0-.8,1.544l1.091,1.677L20.517,52.387l1.09,1.675L43.4,39.882Zm1.764-4.727L45.2,38.987l-1.347-2.068Z"/>
<path fill="#171717" stroke-width="2" d="M59.925,31.073C59.975,30.39,60,29.692,60,29A28,28,0,0,0,4,29c0,.692.025,1.39.075,2.073l2-.146C6.023,30.292,6,29.644,6,29a26,26,0,0,1,52,0c0,.644-.023,1.292-.07,1.927Z"/>
<path fill="#171717" stroke-width="2" d="M31,28H23v2h9a1,1,0,0,0,1-1V11H31Z"/></svg>
